X:1198
T:Sailor's hornpipe
C:anon.
O:Ireland
R:Hornpipe
Z:Transcribed by Frank Nordberg - http://www.musicaviva.com
F:http://abc.musicaviva.com/tunes/ireland/sa/sailors-hornpipe/sailors-hornpipe-1.abc
M:2/4
L:1/16
K:D
(vdc)|"D"d2D2 D2"_(4)"(AG)|"D"FAdc dfed|"E7""_(4)"e2E2 E2(ed)|"A7"cAc"_(0)"e "_(1)"a2(bc')|
"D"d'c'ba bagf|"G"gfed "_(3)"dcBA|"A"Bdce dfeg|"D"f2d2 d2::(AG)|
"D"FAdA FAdA|"G"B2G2 G2(BA)|"E"^GB"_(4)"eB GBeB|"A"c2A2 A2(=gf)|
"G"g2b2 "B7"bagf|"Em"gfed "A"dcBA|"G"Bdce "A"dfeg|"D"(f2d2) d2:|
W:
W:
W:  From Musica Viva - http://www.musicaviva.com
W:  the Internet center for free sheet music downloads.

